build/system/AtOutline.svg

<svg xmlns="http://www.w3.org/2000/svg" fill="none" viewBox="0 0 24 24" focusable="false"><path d="M0 0H24V24H0z"/><path fill="#74767B" fill-rule="evenodd" d="M21.0205 12.0107C21.0205 7.03487 16.9865 3.00035 12.0107 3C7.03466 3 3 7.03466 3 12.0107C3.00029 16.9866 7.03484 21.0205 12.0107 21.0205C13.0336 21.0204 14.0159 20.8477 14.9321 20.533C15.1744 20.4497 15.3301 20.2175 15.3301 19.9613C15.3301 19.5014 14.8474 19.1953 14.4105 19.3386C13.6552 19.5863 12.8487 19.7206 12.0107 19.7207C7.75281 19.7207 4.30107 16.2686 4.30078 12.0107C4.30078 7.75263 7.75263 4.30078 12.0107 4.30078C16.2686 4.30114 19.7207 7.75285 19.7207 12.0107C19.7206 12.6977 19.6301 13.3634 19.4611 13.9971C19.451 14.0488 19.4314 14.0974 19.4197 14.1463C19.3774 14.293 19.3309 14.4378 19.2802 14.5808C19.1819 14.8138 19.0566 14.9987 18.9045 15.1355C18.6564 15.3577 18.3073 15.4701 17.8603 15.4701C17.5565 15.4701 17.298 15.4006 17.0849 15.2617C17.002 15.2077 16.926 15.1432 16.8568 15.0682C16.7367 14.9379 16.6438 14.781 16.578 14.5974C16.5072 14.3997 16.4713 14.1807 16.4703 13.9406C16.4968 13.1549 16.4741 12.4509 16.4021 11.8288C16.3216 11.1337 16.177 10.5147 15.9682 9.97184C15.7239 9.33653 15.3856 8.79 14.9533 8.33225C14.9107 8.28713 14.8672 8.24288 14.8228 8.19948C14.5627 7.93955 14.2803 7.71631 13.9754 7.52975C13.834 7.44327 13.6877 7.3646 13.5367 7.29389C13.2243 7.14755 12.9037 7.04098 12.5751 6.97418C12.2991 6.91808 12.0174 6.89003 11.73 6.89003C11.4426 6.89003 11.1608 6.91809 10.8848 6.97419C10.5562 7.04099 10.2357 7.14756 9.92321 7.29389C9.77221 7.3646 9.62604 7.4432 9.4847 7.52968C9.11069 7.75851 8.77039 8.04257 8.46392 8.38178C8.33492 8.52456 8.21494 8.67377 8.10398 8.82942C7.85499 9.17867 7.6514 9.56031 7.49324 9.97433C7.41302 10.1843 7.34646 10.3977 7.29356 10.6144C7.19118 11.0337 7.13998 11.4657 7.13998 11.91C7.13998 12.3544 7.19116 12.7863 7.29354 13.2056C7.34643 13.4223 7.41302 13.6358 7.49324 13.8458C7.65141 14.2598 7.85498 14.6414 8.10398 14.9907C8.21493 15.1463 8.33494 15.2955 8.46392 15.4383C8.7704 15.7775 9.11064 16.0615 9.48465 16.2904C9.62601 16.3769 9.7722 16.4555 9.92321 16.5262C10.2356 16.6725 10.556 16.779 10.8846 16.8458C11.1606 16.9019 11.4426 16.93 11.73 16.93C12.0284 16.93 12.3205 16.9 12.6063 16.84C12.9257 16.7729 13.2371 16.6683 13.5407 16.5263C13.695 16.4541 13.8442 16.3737 13.9883 16.2851C14.3591 16.0571 14.6964 15.7747 15.0002 15.4379C15.1234 15.3012 15.2384 15.1587 15.3451 15.0102C15.4457 15.2912 15.5924 15.5687 15.767 15.7918C15.8096 15.8461 15.8543 15.8987 15.9012 15.9496C16.0143 16.0721 16.1369 16.1814 16.2692 16.2773C16.4234 16.3891 16.5906 16.4829 16.771 16.5586C17.0882 16.6819 17.4951 16.7701 17.8603 16.7701C18.4812 16.7701 19.0118 16.6292 19.4522 16.3473C19.5653 16.2749 19.6724 16.1932 19.7736 16.1023C20.2096 15.7103 20.5125 15.1613 20.6824 14.4554C20.9018 13.678 21.0204 12.8583 21.0205 12.0107ZM14.0314 9.25329C13.9809 9.19736 13.9292 9.14354 13.8763 9.09184C13.6194 8.84958 13.3183 8.64335 12.973 8.47317C12.7508 8.36999 12.5261 8.28932 12.2926 8.24383C12.1086 8.20798 11.921 8.19003 11.73 8.19003C11.5389 8.19003 11.3514 8.20796 11.1674 8.24383C10.9307 8.28995 10.6997 8.36574 10.4746 8.47118C10.401 8.50565 10.3289 8.54283 10.2583 8.58273C9.95305 8.75542 9.67635 8.97899 9.42853 9.25329C9.3532 9.33667 9.28198 9.42313 9.21486 9.51267C9.00598 9.79136 8.83691 10.0999 8.70765 10.4382C8.65574 10.5741 8.61138 10.712 8.57457 10.8519C8.48485 11.1928 8.43998 11.5455 8.43998 11.91C8.43998 12.2745 8.48483 12.6272 8.57454 12.9681C8.61134 13.1079 8.65575 13.246 8.70765 13.3818C8.8369 13.7202 9.00597 14.0287 9.21485 14.3074C9.28197 14.3969 9.35319 14.4834 9.42853 14.5668C9.67637 14.8411 9.95295 15.0646 10.2583 15.2373C10.3288 15.2772 10.401 15.3144 10.4746 15.3489C10.6997 15.4543 10.9307 15.5301 11.1674 15.5763C11.3514 15.6121 11.539 15.63 11.73 15.63C11.9321 15.63 12.1301 15.6102 12.324 15.5705C12.5516 15.5239 12.7735 15.45 12.9898 15.3488C13.0664 15.313 13.1412 15.2742 13.2144 15.2326C13.5163 15.0607 13.7898 14.8389 14.0348 14.5672C14.1062 14.4881 14.1738 14.4062 14.2378 14.3214C14.4507 14.0395 14.6225 13.7265 14.7534 13.3826C14.8023 13.2542 14.8444 13.124 14.8798 12.992C14.9733 12.6439 15.02 12.2832 15.02 11.91C15.02 11.5455 14.9751 11.1928 14.8854 10.8519C14.8486 10.712 14.8042 10.5741 14.7523 10.4382C14.623 10.0999 14.454 9.79134 14.2451 9.51265C14.178 9.42314 14.1067 9.33664 14.0314 9.25329Z"/></svg>

<svg xmlns="http://www.w3.org/2000/svg" fill="none" viewBox="0 0 24 24" focusable="false"><path fill="none" d="M0 0h24v24H0z"/><path fill="#74767B" fill-rule="evenodd" d="M21.02 12.01c0-4.98-4.04-9.01-9.01-9.01C7.03 3 3 7.03 3 12.01c0 4.97 4.03 9.01 9.01 9.01 1.02 0 2-.18 2.92-.49.24-.09.4-.32.4-.57 0-.46-.49-.77-.92-.63-.76.25-1.57.39-2.4.39-4.26 0-7.71-3.46-7.71-7.71 0-4.26 3.45-7.71 7.71-7.71 4.25 0 7.71 3.45 7.71 7.71 0 .68-.09 1.35-.26 1.98-.01.05-.03.1-.05.15-.04.15-.08.29-.13.44-.1.23-.23.41-.38.55-.25.22-.6.34-1.04.34q-.465 0-.78-.21c-.08-.06-.16-.12-.23-.2-.12-.13-.21-.28-.28-.47-.07-.2-.1-.41-.1-.65.02-.79 0-1.49-.07-2.12-.08-.69-.23-1.31-.44-1.85-.24-.64-.58-1.18-1.01-1.64-.04-.05-.09-.09-.13-.14a4.6 4.6 0 0 0-.85-.67c-.14-.08-.29-.16-.44-.23-.31-.15-.63-.25-.96-.32-.28-.06-.56-.08-.84-.08-.29 0-.57.02-.85.08-.33.07-.65.17-.96.32-.15.07-.3.15-.44.23-.37.23-.71.52-1.02.86-.13.14-.25.29-.36.44-.25.35-.45.74-.61 1.15-.08.21-.15.42-.2.64-.1.42-.15.85-.15 1.3q0 .66.15 1.29c.05.22.12.43.2.64.16.41.36.8.61 1.15.11.15.23.3.36.44.31.34.65.63 1.02.86.14.08.29.16.44.23.31.15.63.25.96.32a4.212 4.212 0 0 0 1.72 0c.32-.07.63-.18.94-.32A4.803 4.803 0 0 0 15 15.43c.12-.13.23-.28.34-.42.1.28.25.55.42.78.04.05.09.1.14.15q.165.195.36.33c.16.11.33.21.51.28.31.13.72.22 1.09.22.62 0 1.15-.15 1.59-.43.11-.07.22-.15.32-.24.43-.39.74-.94.91-1.65.22-.78.34-1.6.34-2.44m-6.99-2.76c-.05-.06-.11-.11-.16-.16-.26-.25-.56-.45-.9-.62-.22-.1-.45-.19-.68-.23-.19-.04-.37-.05-.56-.05-.2 0-.38.01-.57.05-.23.04-.47.12-.69.23-.07.03-.15.07-.22.11a3.3 3.3 0 0 0-1.04.93c-.21.28-.38.58-.51.92-.05.14-.09.28-.13.42-.09.34-.14.69-.14 1.06 0 .36.05.71.14 1.05.04.14.08.28.13.42.13.34.3.64.51.92a3.262 3.262 0 0 0 1.04.93c.07.04.15.08.22.11.22.11.46.19.69.23.19.04.37.06.57.06s.39-.02.59-.06c.23-.05.45-.12.66-.23.08-.03.16-.07.23-.11.3-.17.57-.4.82-.67a3.756 3.756 0 0 0 .72-1.18q.075-.195.12-.39.15-.525.15-1.08c0-.37-.05-.72-.14-1.06-.04-.14-.08-.28-.13-.42-.13-.34-.3-.64-.51-.92-.07-.09-.14-.18-.21-.26"/></svg>
